svgs/sharp-solid/house-turret.svg

<svg xmlns="http://www.w3.org/2000/svg" viewBox="0 0 640 512"><!--! Font Awesome Pro 6.6.0 by @fontawesome - https://fontawesome.com License - https://fontawesome.com/license (Commercial License) Copyright 2024 Fonticons, Inc. --><path d="M0 0L96 0l0 96 32 0 0-96 96 0 0 96 32 0 0-96 96 0 0 96 0 32 0 6.3L235.5 231.4 224 241l0 15 0 256L64 512l0-224L0 224l0-96L0 96 0 0zM256 256l96-80 96-80L640 256l0 256-352 0-32 0 0-32 0-224zM176 128c-22.1 0-40 17.9-40 40l0 40 80 0 0-40c0-22.1-17.9-40-40-40zM496 272l-96 0 0 96 96 0 0-96z"/></svg>

<svg xmlns="http://www.w3.org/2000/svg" viewBox="0 0 640 512"><!--! Font Awesome Pro 6.5.2 by @fontawesome - https://fontawesome.com License - https://fontawesome.com/license (Commercial License) Copyright 2024 Fonticons, Inc. --><path d="M0 0H96V96h32V0h96V96h32V0h96V96v32 6.3L235.5 231.4 224 241v15V512H64V288L0 224V128 96 0zM256 256l96-80 96-80L640 256V512H288 256V480 256zM176 128c-22.1 0-40 17.9-40 40v40h80V168c0-22.1-17.9-40-40-40zM496 272H400v96h96V272z"/></svg>
